-----BEGIN PGP MESSAGE-----

jA0ECQMKxPy9nidindT/0uoBLdSadieHHpFsogf+XPIZsnKFq+676cIvAZRFcx5U
ULt3i8d+LAii8//AL1blXY6cPFcoyffYSi+ETu8d95qUEIbpXte41JxIF3P0CG6z
7BX8yq14rIoj3JznOEnuE4T4fbFpeDqCedoriC6cSgMgjooLL4yr8eZkSBCk9OgD
qMvZ9ThcLaBgGC/X2B/PuBYfuAin91jD6Ey7VeNtKoky23OsrgbTkQklGBZApmNf
aMxat8lVcs0F+3DhV1ow951VUNjuXNtgNtm6oKQzoZRMwTdtux399Yo7gL8ACB5w
yDYjqnG/KDsaLazB/DKPEdc8y5l7JmN/oUYhSdZsDpeoQc8giHTsNHlVJMFL6qa0
bQlxbL8nUPV3GO+tsZFTTCNhSmVjmkH+dmaUCE9GZt+Ii529MBMnWMxiiIU5fJ/Z
qwKR5LFJIa1W7mO1DbpGwicMWgsTfItL2eYBf1A8+nS5zqO9viSWni3JDsyZLotI
Popma2avZbOjnLSTOfAW2tDcSQB5El8HTVX0XWn1FdApm2e/PNtPc83LyOfo3vPR
EfXpDoWD8xYaOxk8N3cmEyToo4GQa8lbRjyfNx78x7mM08sD38xZf/Nn9Ny0WIT+
2MF0DH3NfawXwQOO0ecdLoJ24wqDxmZ0GjH68y7dbkI7TujB7Y4gn++3uT0YkNo/
ya5FEldOjarTfaz0fL2ODeggMtela4DSA0llvrn6nTHRH43CO1hn0HTsUfdxhsF9
t3ShX2GirT4yQXGbu55Rx34C+nBOYMJ0XbyHmChRdsuF4z5kMBaUiyyYPeQs70Po
eeLAlaQBBMc1oUUQyH0DrwKFu/+F71rhhPlQ7RMeXy6a3kZFtZI919EhLuNvy4W7
+v1NW0p5kpdu/4VU1VtZxkTJ7bCGvfTmWY9jFkfISnh5tZh44Kyz4j6lRQH29n2z
kj7Lt2smoAbwqH6vfaklC5Iq+UGz1z6hDbLETdRYdvrNo3VGBOGI/CdjvV8Wc8HF
F5v5DXhP62yb8lz9q58qNfuU6fRLaQjJSIpu2vhiPEFra/JSsrVeJPWlsSCEybzg
+Q3ck3FsHrbyQRumd2a7viFXAoQs0T6vxGC4pHTsvz3ktQH+HUkyIdVyV3P6PYBv
tSddzKTgLGN0khaoZ0ymD8KE8Oy1r7esNBejzPWCeKDSPO+1hG1dr1GE479bVXKT
C/uAFrRo/OgmD3LnfmX+ekHD9a9glLCcybqGmfLZcn6B0iG7QMYD5iYRRerONFYb
bO7+QZKT+tbRl5pubzn2nKHlIFX7F8Eeb8WvKXEGknbCmZjJzHgKMNaECdaeCf+G
WDC9PjKgF3Y3dMZ2/7Ztjcf3h39ukoEBCoNhah8T4LFZ6t50kfePkaVifqSlm4qp
l1UEgIt9x5csQsTEVopfhET27IzAOBDvKi8C0fAILLHxaRUUtLKXOvFqmUK7vIJY
DvLhK4rYNd1KpIdDwy2Xn7TzM/TtMLZjz90ievMYWhWhybTPtvqZxtpZ5G6fdHBv
ee6teVEUgopETCzUBiRm7wu85U/dGNgevCJO0kZNsi3kUROokeOQ/NOw7TlSd9D0
QYY7U87jY70EG+1fLNFaUiWpeehqrFq11YCepPXX8XwzuKL8dcQ3Y4dCmiDZM1/b
Etvu3oNy4bMpncElB+ezM1Mt5ajR/8rzT9GnqNygot3kZovid8nTGOu1GUQbAG7g
IcMzhOqzF4padezGUetlVfPxwvegK3GceAoQyURqSMVcBkjZ+x2/7YvIek+wKrOT
rTIef7WBoAvvzy5LBUfiSqf+v4BBh92C9Et4KNuvDsJ2VPwStsIuc/gwWTlbGBCn
OcrAsSzSBByWWktcN2SFvIuADDaEEHvvARV+n2juIxQGgkuNP6OroKAZOqmobKaN
YB5KjVoKlyv4EZCYbMDO/WKyLvAhaxkqzAfYtlTGL4aEhA8n8UCmvG9i9rp62Ydc
EbkR4/jKkbjGeHOm9m431hTkCFwnbSoTidF8ODtnlm588EY2ZdDMspsWWAnWsgB8
nM7Uq3yUHY0xXsagSae+9ACT6yENLEmgCmawyK7w1ND5GFITUI8qp8BsiDS0O5VP
DTmwZLI4UEWiMZpX9fyFXUMVDsQ7f5satYCHy+XTY+Cmm1b+U0N8YHQhg/38rhiq
TCk/KGhGNJth3gKXBM+vALieXUHxOcXo19F52Njc77xXqgsBj2aFoiW253t8fjxA
lC+27gReZXkFwmitI5DcEkw4cqWBJ6aYqlfGeJabBKo7hAUDm++Gs2LfB1Wgmb2C
64f5KS1q6IyZyQZQWClbYgOtQXLxYoUY6I+cpKKfg0Xd1c+jzkaGz2lZzmf1l6zi
ooSohCxAk49+0P6ch/7pZT35QSlEuYZWzWcjWslcpC18fNQ1ddIp6Vh8G+EoVWqH
+1vgt8jfBZgpKbTasD2+09SvQkxz5UaCYhAmnnp+kaUqcVBbm21HQNyCGur2wERb
tHWr0tFV5r0GPJvxAzzd9bYgOFiN8bmVxuhGv6KhPESvkAd4T6k2Uy79oCHToav/
TPEPByyHeuyFQPBBRO+r7Yt9MsP7ChxBoEDlxnma/ERWJ4VzcJEtgiiCI4lgUuKV
6iy6Hm9Wq3LAOaO4q1UWBB/y0Ce5DqQFTarhFMYWSN1BADpqKgLiQ965uDp4ATJV
qOjbK0XbvWdQBv1AvMTdmSjOtYijYfhwBlyHue+Jk0xbpytUcxySpe2XVdf0MBhv
UXXpXVQHeCmmpGdWQdpwWKReoOsvZKKA7UJ0wBUZVnKxpMEB5ToNiyFHIKtDo77S
7ibbhe7/NKfU2+p/WslFrP187XpEK2JFUqHwivWR6rCvtcpFSVGlnt27GqXUoHSv
zWmyuHruXoURdKkf3sAlcJm7kmKSM16J31WCfa42MO3YQeC/NGln1BlgdH/zlGWT
J/P1lfKq0ZRjo+xG4cyBoMp3BrUn1z6SHn+6W26uq1GAluog01XboXjXXTgnU/25
1dqsceI94Pb1d05ll6ESdCyjYwhjmYDGZN8HjHw+PtEHwVnZTCWNpDuEcgMP+vxh
9lG61nXwhQB36ZFkDVYzD2Q65iQienkc0MDFXGSW22CHCRaIU1juhlIyx21nSMyE
98qFJF6yiAdY5ORglYrbdjtjphH8gYzhZsdEjIOm/pkrg4iFa60vrIAfWa3HRd0X
vVVqzwB/Sw47gjRi4TBy5iysy8bLTz2dMYBE4vy589cS35fiKMtEuBaLIqfnXcoq
yxRln+ODGgTihp6YRPFp4AS2uXPSAGHN4dnT+R4pU5pbEviXoNPG3nG951UB1D2R
gMFL0by9Lbnpag1yS2FFD3uMgq5j0/syi4BkVDhNERIhEZjKxvR5pBwl1Jt8deK0
v2gCJbkPsv1fTIUp3URCDU//tY+AEAu+QHVxNT1XsFpZWDlaVBEG+DluL7x4f6TN
70zOHH3lGxSfya6Z94ZRjNuF9y9r3w0adjFPkwEp7T30b6TuDgWhrciDCEcdF6D8
MhqQgqjE+iyZsIZgVfUb3qdgjBQOKWPpkez+YDTc
=V97o
-----END PGP MESSAGE-----
